X: 1
T:BWV 808, 7th movement
C:Johann Sebastian Bach
O:Germany
R:Gavotte, musette
Z:Transcribed by Frank Nordberg - http://www.musicaviva.com

V:1 Program 1 6 %Harpsichord
V:2 Program 1 6 bass up %Harpsichord
V:3 Program 1 6 bass merge %Harpsichord
M:C|
L:1/8
Q:1/2=75

K:G
V:1
D2 EC|D2GA B2AF|G2D2 G2AF|GABc dBcA|B4::d2ec|
V:2
B,2A,2|B,2C2 D2C2|B,2C2 B,2A,2|B,2C2 B,2A,2|G,4::B,2A,2|
V:3
G,4-|G,8-|G,8-|G,8-|G,4::G,4-|

V:1
d2cA BGAF|G2D2 EDGD|EDGD EDA2|A4 A2BG|c2BG ecdB|cBAG ABcB|
V:2
B,2E2 D2C2|B,2A,B, C2B,2|C2B,2 C2CA,|[F4C4] C2D2|E2D2 C2B,2|A,2B,2 C2D2|
V:3
G,8-|G,8-|G,8-|G,4G,4-|G,8-|G,8-|

V:1
AGFG AGFE|D4 D2EC|D2GA B2AF|G2D2 BFGD|dFGD BFGD-|[D4G4]:|
V:2
C2E2 D2 C2|B,2C2 B,2A,2|B,2C2 D2C2|B,2z2 D2z2|B,2z2 D2z2|B,4:|
V:3
G,8-|G,4G,4-|G,8-|G,8-|G,8-|G,4:|

